X: 1
T: Aim\'e Gagnon
O: Qu\'ebec
R: reel
S: Fiddle Hell Online 2021-10-13 Portland Collection Jam handout
B: PC3 p.17
Z: 2021 John Chambers <jc:trillian.mit.edu>
M: C|
L: 1/8
%%continueall
K: G
"^A"|: DC | "G"B,DGA B2DC | B,DGA "(E7)"B2AG | "D"FGAB cAFA |[1,3 "G"GABc "D7"d2 :|[2,4 "D"GBAF "G"G2 :|
"^B"|: Bd | "G"kgddkg ddkgd | Bcde "(E7)"dBAG | "D"FGAB cAFA |[1,3 "G"GABc "D7"d2 :|[2,4 "D"GBAF "G"G2 :|
